X:1
T:Title
%%score { 1 | 2 }
L:1/8
Q:1/4=100
M:4/4
K:F
V:1 treble nm="Grand Piano"
V:2 bass 
V:1
 [Ac]2 [_A=B]>[=Ac] A2 F2 | A>A GF [EG]4 | [EB]2 [Ec]>[EG] [GB]2 A2 | G>c =Bd [Ec]4 | c4 A2 z2 | %5
w: Ira~D.~Sankey * * * *|||||
 c4 A2 z F | A3 [DFB] [CFA]2 [B,EG]2 | [F,A,F]6 z2 |] %8
w: |||
V:2
 [F,C]2 [F,C]>[F,C] [F,CF]2 [F,A,C]2 | [F,CF]>[F,CF] [E,B,C][F,A,C] [C,C]4 | %2
 [C,C]2 [C,G,]>[C,C] [E,C]2[K:treble] [F,CF]2 | [G,CE]>[G,CE] [G,DF][G,=B,F][K:bass] [C,C]4 | %4
 [F,A,F]4 [F,CF]2 z2 | [F,A,F]4 [F,CF]2 z [F,A,C] | [F,CF]3 B,, C,2 C,2 | F,,6 z2 |] %8

